X: 374
T: Bow Vow or Mr Kill Devil
%R: jig
Z: 2014 John Chambers <jc:trillian.mit.edu>
B: Preston "Twenty four Country Dances for the Year 1799" p.167 #2
F: http://www.vwml.org/browse/browse-collections-dance-tune-books/browse-prestons1799# 2014-8-10
M: 6/8
L: 1/8
K: Em
E |\
G2A B2A | G2E E2G | F2A AdA | F2D DEF |\
G2A B2A | G2B AB^c | d2D DED | F2E E2 :|
|: ^d |\
e2B BcB | e2B g2e | d2A ABA | d2A f2^d |\
e2B BcB | e2B g2e | d2D DED | F2E E2 :|
% - - - - - - - - - - - - - - - - - - - - - - - - -
%%begintext align
%% 1st Cu: set to the 2d Lady & hands 3 round .|
%% set & hands 3 back again :| cross overone Cu:
%% & turn :|. right & left at top :|:
%%endtext
% - - - - - - - - - - - - - - - - - - - - - - - - -

%%sep 1 1 500
%%sep 1 1 500
